X: 706
P: Longways for as many as will
M: 6/8
L: 1/8
K: F
V: 1
|: f | fcf f>gf | e>dc dcd | f>ga/b/ Tg2f | f>ga gaf | e>dc def | cAF TG2 :|
V: 2 clef=bass middle=d
z | f3 a2b | f3 e2f | c3 B3 | F3 B3 | d3 c3 | d3 D2 :|
|: z | a3 g3 | c3 b3 | a2f c'2f | a2f e2d | c3 B3 | F3 c2 :|

